Sources/FrostedUI/Resources/Icons.xcassets/minimize16.imageset/minimize-16.svg

<svg width="16" height="16" viewBox="0 0 16 16" fill="none" xmlns="http://www.w3.org/2000/svg" data-fui-icon="true">
  <path
    d="M13.6417 8.755C14.0557 8.75505 14.3914 9.09111 14.3917 9.505C14.3916 9.91903 14.0557 10.2548 13.6417 10.255H11.3156L14.5304 13.4698C14.8231 13.7627 14.823 14.2375 14.5304 14.5304C14.2375 14.8231 13.7627 14.8231 13.4698 14.5304L10.255 11.3165V13.6417C10.255 14.0559 9.91922 14.3917 9.505 14.3917C9.09097 14.3915 8.755 14.0558 8.755 13.6417V9.50598C8.75501 9.0919 9.09097 8.75619 9.505 8.75598L13.6417 8.755ZM1.46985 1.46985C1.76276 1.17713 2.23756 1.17701 2.5304 1.46985L5.74524 4.68372V2.35852C5.74524 1.94431 6.08103 1.60852 6.49524 1.60852C6.90917 1.60886 7.24524 1.94451 7.24524 2.35852V6.49426C7.24524 6.90827 6.90916 7.24392 6.49524 7.24426L2.35754 7.24524C1.94378 7.24499 1.60793 6.90898 1.60754 6.49524C1.60754 6.08105 1.94434 5.7443 2.35852 5.74426H4.68469L1.46985 2.5304C1.17703 2.23757 1.17717 1.76276 1.46985 1.46985Z"
    fill="currentColor"
  />
</svg>

<svg xmlns="http://www.w3.org/2000/svg" width="16" height="16" fill="none" data-fui-icon="true" viewBox="0 0 16 16"><path fill="currentColor" d="M13.642 8.755a.75.75 0 0 1 0 1.5h-2.326l3.214 3.215a.75.75 0 0 1-1.06 1.06l-3.215-3.213v2.325a.75.75 0 0 1-1.5 0V9.506a.75.75 0 0 1 .75-.75zM1.47 1.47a.75.75 0 0 1 1.06 0l3.215 3.214V2.359a.75.75 0 0 1 1.5 0v4.135a.75.75 0 0 1-.75.75l-4.137.001a.751.751 0 0 1 0-1.5h2.327L1.47 2.53a.75.75 0 0 1 0-1.06"/></svg>
